X:1
T:Tu sai madonna
T:Tu sai madonna
T:Orlande de Lassus
C:Orlande de Lassus
%%score [ 1 [ 2 3 ] 4 ]
L:1/8
Q:1/4=120
M:2/2
K:F
V:1 treble nm="Superius" snm="S"
V:2 treble-8 nm="Tenor 1" snm="T 1"
V:3 treble-8 nm="Tenor 2" snm="T 2"
V:4 bass nm="Bassus" snm="B"
V:1
 E4 D2 E2 |: F2 F2 F4 | F2 z B B2 B2 | G2 G2 ^F2 G2 |"^#" E2 G4 F2 |[M:2/4] G4 |1 %6
w: Tu sai ma-|don- na mi-|a, tu sai ma-|don- na mia, ch'io|t'a- mo'et vo-|glio,|
w: ||||||
w: ||||||
w: ||||||
[M:2/2] z2 E2 D2 E2 :|2"^#" E2 G4 F2 || G4 d2 d2 | d2 G4 G2 | A2 A2 d2 d2 | c2 d2 dc BA | %12
w: tu sai ma-|t'a- mo'et vo-|glio, 1)tan- to|di ben, tan-|to di ben, ch'io|non ri- tro- * * *|
w: ||* 2)se fai|che del tuo|lac- cio mai mi|sco glio'e- per voi me nu-|
w: ||* 3)se fai|che la mia|fe- d'e fer- mo|sco- glio che per voi mi|
w: ||* 4)dun- que|ma- don- na|ces- sa'il tuo fu-|ro- re hab- bi pie- ta|
 G2 A3 G G2- | G2 F2 G2 B2 |: AF G2 FAGD | F2 DG F3 E | F2 D d2 c BA/G/ |1 F G2 F G2 B2 :|2 %18
w: * vo _ lo-|* * co, per|che pren- de- te, per che pren-|de- te, per che pren-|de- t'el mio mar- tir _ _|_ in gio- co, per|
w: tri- co'in fiam- ma'e|* fo- co, per|||||
w: con- su- mo'apo- *|co'a po- co, per|||||
w: di chi da- to'il|* co- re, ch'in|vi- ta'e mor- t'e- bon, ser- vi-|to- re, per che pren-|de- t'el mio mar- * tir _|_ in gio- co, ch'in|
"^#" F G2 F G4- || G8 |] %20
w: (tir) in gio- co.||
w: ||
w: ||
w: ||
V:2
 c4 =B2 c2 |: c2 d2 d4 | c2 z f f2 g2 | e2 d2 d2 d2 | c2 c2 d4 |[M:2/4] d4 |1 %6
w: Tu sai ma-|don- na mi-|a, tu sai ma-|don- na mia, ch'io|t'a- mo'et vo-|glio,|
w: ||||||
w: ||||||
w: ||||||
[M:2/2] z2 c2 =B2 c2 :|2 c2 c2 d2 dd || d2 d2 =B4 | d4 e2 e2 | f4 f4- | f4 d2 d2 | _e6 c2 | %13
w: tu sai ma-|t'a- mo'et vo- glio, 1)tan-|to di ben,|tan- to di|ben, ch'io|* non ri-|tro- vo|
w: |* * * * 2)se|fai che del|tuo lac- cio-|me nu-|* tri- co'in|fiam- ma'e|
w: |* * * * 3)se|fai che sco-|glio per voi|mi con-|* su- mo'a|po- co'a|
w: |* * * * 4)dun-|que ma- don-|na ces- sa'il|tuo fu-|* ro- re,|da- to'il|
 d4 d3 B |: cd d2 dfdB | cABd dAdc | Ad f/e/d/c/ BFGA |1 B>c d2 d3 B :|2 B>c d2 d4- || d8 |] %20
w: lo- co, per|che pren- de- te, per che pren-|de- t'el mio, per che pren- de- t'el|mio mar- tir _ _ _ _ in gio- *|* * * co, *|(gio)- * * co.||
w: fo- co, per|||||||
w: po- co, per|||||||
w: co- re, ch'in|vi- ta'e mor- te t'e bon ser-|vi- to- re, per che pren- de- t'el|mio mar- tir _ _ _ _ in- gio- *|* * * co, ch'in|(gio)- * * co.||
V:3
 G4 G2 G2 |: A2 A2 B4 | A2 z d d2 d2 | c2 B2 A2 B2 | G2 G2 A4 |[M:2/4] G4 |1[M:2/2] z2 G2 G2 G2 :|2 %7
w: Tu sai ma-|don- na mi-|a, tu sai ma-|don- na mia, chio|t'a- mo'et vo-|glio,|tu sai ma-|
w: |||||||
w: |||||||
w: |||||||
 G2 G2 A4 || G2 d2 d2 d2 | =B4 z2 c2 | c2 c2 B2 B2 | A2 A2 G3 A | B2 c2 cBAG | A4 G4 |: %14
w: t'a- mo'et vo-|glio, 1)tan- to di|ben tan-|to- di ben ch'io|non ri- tro- *|* vo lo- * * *|* co-|
w: |* 2)se fai che|del tuo-|lac- cio mai mi|sco- glio'e per voi|me nu- tri- co'in fiam- ma'e|fo- co,|
w: |* 3)se fai che|mia fe-|d'e- fer- mo sco-|glio che per voi|mi con- su- mo'a- po- co'a|po- co,|
w: |* 4)dun- que ma-|donna ces-|sa'il tuo fu- ro-|re hab- bi pie-|ta di chi da- to'il _|co- re,|
 z2 B2 AF G2 | F2 z B AFGG | F2 B2 GA Bc |1 dG A2 G4 :|2 dG A2 =B4- || B8 |] %20
w: per che pren- de-|te, per- che pren- de- te'il|mio mar- tir _ _ _|_ in gio- co,|(tir) in gio- co.||
w: ||||||
w: ||||||
w: ch'in vi- ta'e mor-|te per che pren- de- te'il|mio mar- tir _ _ _|_ in gio- co,|(tir) in gio- co.||
V:4
 C,4 G,,2 C,2 |: F,2 D,2 B,,4 | F,2 z B,, B,2 G,2 | C,2 G,2 D,2 G,,2 | C,2 _E,2 D,4 | %5
w: Tu sai ma-|don- na mi-|a, tu sai ma-|don- na mia, ch'io|t'a- mo'et vo-|
w: |||||
w: |||||
w: |||||
[M:2/4] G,,4 |1[M:2/2] z2 C,2 G,,2 C,2 :|2 C,2 _E,2 D,4 || G,,4 z2 G,2 | G,2 G,2 C,3 C, | %10
w: glio,|tu sai ma|t'a- mo'et vo-|glio, 1)tan-|to di ban, tan-|
w: |||* 2)se|fai che del tuo|
w: |||* 3)se|fai che la mia|
w: |||* 4)|dun- que ma- don-|
 F,2 F,2 B,,C,D,E, | F,2 D,2 B,A, G,F, | _E,2 C,2 E,2 E,2 | D,4 G,,2 G,2 |: F,D, G,,2 D,2 B,2 | %15
w: to di ben, _ _ _|_ ch'io non _ _ _|_ ri- tro- vo|lo- co, per|che pren- de- te, per|
w: lac- cio mai mi sco- glio'e|per voi me _ nu- *|tri- co'in fiam- ma'e|fo- co, per||
w: fe- d'e fer- mo sco- glio|per voi mi _ con- *|su- mo'a po- co'a|po- co, per||
w: na ces- sa'il tuo fu- ro-|re hab- bi- pie- ta di|chi da- * to'ol|co- re, ch'in|vi- ta'e mor- t'e- bon|
 A,D, G,2 D,D,B,,C, | D,2 B,, B,2 A, G,F,/E,/ |1 D,_E, D,2 G,,2 G,2 :|2 D,_E, D,2 G,,4- || G,,8 |] %20
w: che pren- de- te, per ch pren-|de- t'el mio mar- tir _ _|_ in gio- co, per|(tir) in gio- co.||
w: |||||
w: |||||
w: ser- vi- to- re, per che pren-|de- t'el mio mar- tir _ _|_ in gio- co, ch'in|(tir) in gio- co.||

